!!!OTL: 454. An Emma.
!!!COM: Z. F. Zelter
!!!ODT: 1798
!!!ARE: Europa, Mitteleuropa, Deutschland
!!!SCT: B0454
!!!TXL: @@DE
!!!YEM: Copyright 1995, estate of Helmut Schaffrath.
**kern	**text
*ICvox	*
*Ivox	*
*clefG2	*
*M4/4	*
*met(c)	*
*k[f#c#]	*
*D:	*
!LO:TX:a:t=Langsam.	!
{4f#	Weit
4g	in
=1	=1
4a	ne-
8bL	-bel-
8cc#J	.
8eeL	-grau-
8ddJ	.
8cc#L	-er
8bJ	.
=2	=2
8aL	Fer-
8gJ	.
4f#}	-ne
{4e	liegt
4d#	mir
=3	=3
4e	das
4f#	ver-
(8gL	-gang'-
8a	.
8bJ)	.
8d	-ne
=4	=4
(4d	Glück,
4c#)}	.
{4a	nur
4a	an
=5	=5
8aL	ei-
8ff#J	.
8eeL	-nem
8ddJ	.
8ddL	ſchö-
8cc#J	.
8bL	-nen
8aJ	.
=6	=6
8aL	Ster-
8gJ	.
4f#}	-ne
{4e	weilt
4e	mit
=7	=7
8eL	Lie-
8f#J	.
8g#L	-be
8aJ	.
(8b/L	noch
8cc#	.
8f#J)	.
8g#	der
=8	=8
4a	Blick;
4r}	.
{4a	a-
4a	-ber,
=9	=9
(>4dd/	wie
8cc#/)	.
8b-/	des
8b-L	Ster-
8aJ	.
8aL	-nes
8gJ	.
=10	=10
(>4g	Pracht,
4f#X)}	.
{4g	iſt
4a	es
=11	=11
8bL	nur
8cc#	.
8ddJ	.
8ee	ein
8ff#L	Schein
8ggJ	.
8eeL	der
8cc#J	.
=12	=12
2dd}	Nacht.
==	==
!!!AGN: Liebes - Lied, Leid, Klage
!!!GTL: Liebeslieder - Liebesleid
!!!ONB: ESAC (Essen Associative Code) Database: BOEHME
!!!AMT: simple quadruple
!!!AIN: vox
!!!EED: Helmut Schaffrath
!!!EEV: 1.0
!!!RDF**kern: > = above
!!@@COMMENT:"Gedicht von Fr. v. Schiller. Text ʒuerſt in Schiller's Muſenalmanach für das Jahr 1798. "
!!Tübingen (Cotta), S. 115. Mit Mel. auf einer Muſikbeilage, darauf der Name Ʒelter angegeben.
!!Das Gedicht iſt 1796 entſtanden (ſ. Viehoff III, 258). Die ʒwei letʒten Ʒeilen ſpäter von Schiller
!!Die Melodie des im 18. Jahrh. vielgeſungenen Liedes wurde als Choral verwendet, ʒuerſt
!!im Herrnhuter Geſangbuch 1784 ʒu: "O geſegnetes Regieren". Später in andern Choralbüchern ʒu:
!!"O du Liebe meiner Liebe" und "Jeſu der du meine Seele. - Jch gebe die Mel. nach dem Herrn-
!!huter Choralbuch 1784, weil keine ältere Notation mir ʒur Verfügung ſteht, beʒweifle aber, daß
!!der volksthümliche Geſang der Baniſe dieſen langweiligen Choral-Rhythmus hatte.[...]"
!!@@END:
!!!Text: F. Schiller
!!!URL-scan: https://archive.org/details/BoehmeVtLieder1895/page/n365/mode/2up
!!!ENC: Anna Maria Matuszewska
!!!EEV: 2024/09/07
*-	*-
